X:14469
T:Rond de Saint-Vincent
C:trad.
A:Bretagne
O:France
M:2/4
L:1/8
Q:1/8=220
K:F
GB/2A/2 GF|G2 BA/2B/2|cA BG:|
|:GG/2G/2 AG|F2 BA/2B/2|cA BG|GG/2G/2 AG|F2 BA/2B/2|cA G2:||
